X:1
T:Title
%%score { 1 | 2 }
L:1/8
M:4/4
K:G
V:1 treble nm="Grand Piano"
V:2 bass 
V:1
 z4 z[Q:1/4=100] DDG |[M:3/4] B3 [DG] [DF][FA] | [Ac]3 [FA] [GB][Ac] | [Bd]3 [Ac] [GB][FA] | %4
[M:3/8] G3 | DDG |[M:3/4] B3 [DG] [DF][FA] | [Ac]3 [FA] [GB][Ac] | [Bd]3 [Ac] [GB][FA] | %9
[M:3/8] G3 | [Bd][Bd][ce] |[M:3/4] [Ac]3 [Ac] [Ac][Bd] | [GB]3 [B,D] [B,G][GB] | %13
 [Bd]3 [Ac] [GB][FA] |[M:3/8] G3 |] %15
V:2
 z4 z [G,B,][G,B,][G,B,] |[M:3/4] [G,D]3 B,, D,D, | D,3 C, B,,A,, | G,,3 C, D,D, |[M:3/8] G,,3 | %5
 [G,B,][G,B,][G,B,] |[M:3/4] [G,D]3 B,, D,D, | D,3 C, B,,A,, | G,,3 C, D,D, |[M:3/8] G,,3 | %10
 D,D,D, |[M:3/4] D,3 D, D,D, | G,3 G, D,B,, | G,,A,, B,,C, D,D, |[M:3/8] G,,3 |] %15

